shader_type spatial;

uniform sampler2D DEPTH_TEXTURE : hint_depth_texture, filter_linear_mipmap;
uniform sampler2D SCREEN_TEXTURE : hint_screen_texture, filter_linear_mipmap;

void vertex() {
	POSITION = vec4(VERTEX, 1.0);
}
